svg/media/fast_rewind_fill.svg

<?xml version="1.0" encoding="UTF-8"?>
<svg width="24px" height="24px" viewBox="0 0 24 24" version="1.1" xmlns="http://www.w3.org/2000/svg" xmlns:xlink="http://www.w3.org/1999/xlink">
    <title>fast_rewind_fill</title>
    <g id="页面-1" stroke="none" stroke-width="1" fill="none" fill-rule="evenodd">
        <g id="Media" transform="translate(-336.000000, -48.000000)">
            <g id="fast_rewind_fill" transform="translate(336.000000, 48.000000)">
                 <path d="M24,0 L24,24 L0,24 L0,0 L24,0 Z M12.5934901,23.257841 L12.5819402,23.2595131 L12.5108777,23.2950439 L12.4918791,23.2987469 L12.4918791,23.2987469 L12.4767152,23.2950439 L12.4056548,23.2595131 C12.3958229,23.2563662 12.3870493,23.2590235 12.3821421,23.2649074 L12.3780323,23.275831 L12.360941,23.7031097 L12.3658947,23.7234994 L12.3769048,23.7357139 L12.4804777,23.8096931 L12.4953491,23.8136134 L12.4953491,23.8136134 L12.5071152,23.8096931 L12.6106902,23.7357139 L12.6232938,23.7196733 L12.6232938,23.7196733 L12.6266527,23.7031097 L12.609561,23.275831 C12.6075724,23.2657013 12.6010112,23.2592993 12.5934901,23.257841 L12.5934901,23.257841 Z M12.8583906,23.1452862 L12.8445485,23.1473072 L12.6598443,23.2396597 L12.6498822,23.2499052 L12.6498822,23.2499052 L12.6471943,23.2611114 L12.6650943,23.6906389 L12.6699349,23.7034178 L12.6699349,23.7034178 L12.678386,23.7104931 L12.8793402,23.8032389 C12.8914285,23.8068999 12.9022333,23.8029875 12.9078286,23.7952264 L12.9118235,23.7811639 L12.8776777,23.1665331 C12.8752882,23.1545897 12.8674102,23.1470016 12.8583906,23.1452862 L12.8583906,23.1452862 Z M12.1430473,23.1473072 C12.1332178,23.1423925 12.1221763,23.1452606 12.1156365,23.1525954 L12.1099173,23.1665331 L12.0757714,23.7811639 C12.0751323,23.7926639 12.0828099,23.8018602 12.0926481,23.8045676 L12.108256,23.8032389 L12.3092106,23.7104931 L12.3186497,23.7024347 L12.3186497,23.7024347 L12.3225043,23.6906389 L12.340401,23.2611114 L12.337245,23.2485176 L12.337245,23.2485176 L12.3277531,23.2396597 L12.1430473,23.1473072 Z" id="MingCute" fill-rule="nonzero"></path>
                <path d="M19.7876,5.6272 C20.5651,5.26809 21.4681,5.83063 21.5709,6.74113 L21.5980119,6.99094418 L21.5980119,6.99094418 L21.660023,7.64391675 L21.660023,7.64391675 L21.7245946,8.48914844 L21.7245946,8.48914844 L21.7690566,9.24043549 L21.7690566,9.24043549 L21.7946089,9.79374959 L21.7946089,9.79374959 L21.815521,10.3868936 L21.815521,10.3868936 L21.8306195,11.0180374 L21.8306195,11.0180374 L21.8387974,11.6853512 L21.8387974,11.6853512 L21.8387974,12.367751 L21.8387974,12.367751 L21.8311763,13.0149099 L21.8311763,13.0149099 L21.8077018,13.9216748 L21.8077018,13.9216748 L21.785577,14.4811125 L21.785577,14.4811125 L21.74534,15.2485065 L21.74534,15.2485065 L21.6841234,16.1290179 L21.6841234,16.1290179 L21.6220696,16.8342802 L21.6220696,16.8342802 L21.5677,17.351 L21.5677,17.351 C21.4689,18.2172 20.6249,18.7229 19.8538,18.3685 L19.2460937,18.079211 L19.2460937,18.079211 L18.9306684,17.9222883 L18.9306684,17.9222883 L18.3859427,17.6418576 L18.3859427,17.6418576 L17.9778308,17.4244548 L17.9778308,17.4244548 L17.5359606,17.1823582 L17.5359606,17.1823582 L17.0622273,16.9152811 L17.0622273,16.9152811 L16.5585261,16.6229368 L16.5585261,16.6229368 L16.0267519,16.3050387 L16.0267519,16.3050387 L15.4688,15.9613 L15.4688,15.9613 L14.7799494,15.5223117 L14.7799494,15.5223117 L14.1444122,15.1023821 L14.1444122,15.1023821 L13.5636032,14.7052949 L13.5636032,14.7052949 L13.0389376,14.334834 C12.9562506,14.2755196 12.8759618,14.2174723 12.7981008,14.1607709 L12.7580695,15.0204839 L12.7580695,15.0204839 L12.7104796,15.7763342 L12.7104796,15.7763342 L12.6431055,16.6105219 L12.6431055,16.6105219 L12.5811021,17.2311486 C12.5764575,17.2735101 12.5719808,17.3134749 12.5677,17.351 C12.4689,18.2172 11.6249,18.7229 10.8538,18.3685 L10.2460888,18.079211 L10.2460888,18.079211 L9.93065982,17.9222883 L9.93065982,17.9222883 L9.38592829,17.6418576 L9.38592829,17.6418576 L8.97781295,17.4244548 L8.97781295,17.4244548 L8.53594038,17.1823582 L8.53594038,17.1823582 L7.81398336,16.7722853 L7.81398336,16.7722853 L7.29601101,16.4671999 C7.20736941,16.4142189 7.11759771,16.3601671 7.02673539,16.3050387 L6.46879,15.9613 L6.46879,15.9613 L5.88966069,15.5933412 C5.79620384,15.5330258 5.7042908,15.4732465 5.61393875,15.4140493 L5.09069587,15.0662193 L5.09069587,15.0662193 L4.60574185,14.7345667 L4.60574185,14.7345667 L4.15990166,14.4212977 L4.15990166,14.4212977 L3.56628446,13.9906901 L3.56628446,13.9906901 L3.22183815,13.7330333 L3.22183815,13.7330333 L2.65977431,13.2982446 L2.65977431,13.2982446 L2.35245,13.0513 L2.35245,13.0513 C1.6829,12.5046 1.66596,11.4589 2.31001,10.9335 L2.74180964,10.5887299 L2.74180964,10.5887299 L3.34910373,10.1238558 L3.34910373,10.1238558 L3.71572634,9.85251749 L3.71572634,9.85251749 L4.12282073,9.55851831 L4.12282073,9.55851831 L4.80686641,9.08040087 L4.80686641,9.08040087 L5.31017927,8.74049042 L5.31017927,8.74049042 L5.84999511,8.38651178 L5.84999511,8.38651178 L6.42518,8.02092 L6.42518,8.02092 L6.99836888,7.66811357 C7.09177738,7.61154419 7.1840905,7.55608845 7.27525738,7.50174309 L7.8080971,7.188969 L7.8080971,7.188969 L8.31098667,6.90268593 L8.31098667,6.90268593 L8.78148548,6.64273609 L8.78148548,6.64273609 L9.21715296,6.40896173 L9.21715296,6.40896173 L9.9742316,6.01930834 L9.9742316,6.01930834 L10.5626979,5.73246357 L10.5626979,5.73246357 L10.7876,5.6272 L10.7876,5.6272 C11.5651,5.26809 12.4681,5.83063 12.5709,6.74113 L12.6160161,7.16808264 L12.6160161,7.16808264 L12.6670086,7.72582393 L12.6670086,7.72582393 L12.7190032,8.4067522 L12.7190032,8.4067522 L12.7671257,9.20326583 L12.7671257,9.20326583 L12.7946492,9.7947351 L12.7946492,9.7947351 L13.2871757,9.44177786 C13.4604889,9.3194082 13.6428335,9.19254732 13.8338908,9.06187338 L14.4328815,8.65909054 C14.745127,8.45265767 15.0762585,8.23917124 15.4252,8.02092 L15.9983837,7.66811357 C16.0917914,7.61154419 16.1841038,7.55608845 16.27527,7.50174309 L16.8081059,7.188969 L16.8081059,7.188969 L17.3109926,6.90268593 L17.3109926,6.90268593 L17.7814892,6.64273609 L17.7814892,6.64273609 L18.2171551,6.40896173 L18.2171551,6.40896173 L18.9742321,6.01930834 L18.9742321,6.01930834 L19.5626979,5.73246357 L19.5626979,5.73246357 L19.7876,5.6272 L19.7876,5.6272 Z" id="路径" fill="#09244B"></path>
            </g>
        </g>
    </g>
</svg>

<svg xmlns="http://www.w3.org/2000/svg" width="24" height="24"><g fill="none" fill-rule="evenodd"><path d="M24 0v24H0V0h24ZM12.593 23.258l-.011.002-.071.035-.02.004-.014-.004-.071-.035c-.01-.004-.019-.001-.024.005l-.004.01-.017.428.005.02.01.013.104.074.015.004.012-.004.104-.074.012-.016.004-.017-.017-.427c-.002-.01-.009-.017-.017-.018Zm.265-.113-.013.002-.185.093-.01.01-.003.011.018.43.005.012.008.007.201.093c.012.004.023 0 .029-.008l.004-.014-.034-.614c-.003-.012-.01-.02-.02-.022Zm-.715.002a.023.023 0 0 0-.027.006l-.006.014-.034.614c0 .012.007.02.017.024l.015-.002.201-.093.01-.008.004-.011.017-.43-.003-.012-.01-.01-.184-.092Z"/><path fill="#09244B" d="M19.788 5.627c.777-.359 1.68.204 1.783 1.114l.027.25.062.653.065.845.044.751.026.554.02.593.016.631.008.667v.683l-.008.647-.023.907-.022.56-.04.767-.062.88-.062.705-.054.517c-.1.866-.943 1.372-1.714 1.018l-.608-.29-.315-.157-.545-.28-.408-.218-.442-.242-.474-.267-.503-.292-.532-.318-.558-.344-.69-.439-.635-.42-.58-.397-.525-.37-.24-.174-.04.86-.049.755-.067.835-.062.62-.013.12c-.1.866-.943 1.372-1.714 1.018l-.608-.29-.315-.157-.545-.28-.408-.218-.442-.242-.722-.41-.518-.305a47.459 47.459 0 0 1-.27-.162l-.557-.344-.58-.368-.275-.179-.523-.348-.485-.331-.446-.314-.594-.43-.344-.258-.562-.435-.308-.247c-.67-.546-.686-1.592-.042-2.117l.432-.345.607-.465.367-.271.407-.294.684-.479.503-.34.54-.353.575-.366.573-.353.277-.166.533-.313.503-.286.47-.26.436-.234.757-.39.589-.287.225-.105c.777-.359 1.68.204 1.783 1.114l.045.427.051.558.052.68.048.797.028.592.492-.353c.173-.123.356-.25.547-.38l.599-.403a46.8 46.8 0 0 1 .992-.638l.573-.353.277-.166.533-.313.503-.286.47-.26.436-.234.757-.39.589-.287.225-.105Z"/></g></svg>
